X:1
T:Wi' a Hundred Pipers
M:6/8
L:1/8
K:F
 F/2G/2| A2 C CDC| D2 F F2 d/2d/2| c2 A AGF| A2 G G2F/2-G/2| A2 C CDC|\
 D2 F F2 d/2d/2| c2 A GAG| F2 F F2 A/2B/2| c2 c cAc| d2 f f2e/2-d/2|\
 c2 A AGF| A2 G G2A/2-B/2| cccc-d e| f2 f f2 e/2d/2| c2 A GAG| F2 F F2 F/2G/2|\
 A2 C CDC| D2 F F2 d/2d/2| c2 A AGF| A2 G G2F/2-G/2| A2 C CDC| D2 F F2 d/2d/2|\
 c2 A GAG| F2 F F2 F/2G/2| F2 F F2||
